svg/shopping_outline.svg

<svg xmlns="http://www.w3.org/2000/svg" viewBox="0 0 24 24"><path d="M19 6h-2c0-2.8-2.2-5-5-5S7 3.2 7 6H5c-1.1 0-2 .9-2 2v12c0 1.1.9 2 2 2h14c1.1 0 2-.9 2-2V8c0-1.1-.9-2-2-2m-7-3c1.7 0 3 1.3 3 3H9c0-1.7 1.3-3 3-3m7 17H5V8h14zm-7-8c-1.7 0-3-1.3-3-3H7c0 2.8 2.2 5 5 5s5-2.2 5-5h-2c0 1.7-1.3 3-3 3"/></svg>

<?xml version="1.0" encoding="UTF-8"?><!DOCTYPE svg PUBLIC "-//W3C//DTD SVG 1.1//EN" "http://www.w3.org/Graphics/SVG/1.1/DTD/svg11.dtd"><svg xmlns="http://www.w3.org/2000/svg" xmlns:xlink="http://www.w3.org/1999/xlink" version="1.1" id="mdi-shopping-outline" width="24" height="24" viewBox="0 0 24 24"><path d="M19 6H17C17 3.2 14.8 1 12 1S7 3.2 7 6H5C3.9 6 3 6.9 3 8V20C3 21.1 3.9 22 5 22H19C20.1 22 21 21.1 21 20V8C21 6.9 20.1 6 19 6M12 3C13.7 3 15 4.3 15 6H9C9 4.3 10.3 3 12 3M19 20H5V8H19V20M12 12C10.3 12 9 10.7 9 9H7C7 11.8 9.2 14 12 14S17 11.8 17 9H15C15 10.7 13.7 12 12 12Z" /></svg>
